resources/img/scalable/actions/flypie-doughnut-symbolic.svg

<?xml version="1.0" encoding="UTF-8" standalone="no"?>
<svg
   xmlns:dc="http://purl.org/dc/elements/1.1/"
   xmlns:cc="http://creativecommons.org/ns#"
   xmlns:rdf="http://www.w3.org/1999/02/22-rdf-syntax-ns#"
   xmlns:svg="http://www.w3.org/2000/svg"
   xmlns="http://www.w3.org/2000/svg"
   xmlns:sodipodi="http://sodipodi.sourceforge.net/DTD/sodipodi-0.dtd"
   xmlns:inkscape="http://www.inkscape.org/namespaces/inkscape"
   width="4.2333mm"
   height="4.2333mm"
   version="1.1"
   viewBox="0 0 4.2333 4.2333"
   id="svg14"
   sodipodi:docname="flypie-doughnut-symbolic.svg"
   inkscape:version="1.0.2 (e86c870879, 2021-01-15)">
  <defs
     id="defs18">
    <inkscape:path-effect
       effect="fillet_chamfer"
       id="path-effect981"
       is_visible="true"
       lpeversion="1"
       satellites_param="F,0,0,1,0,0.1,0,1 @ F,0,0,1,0,0.1,0,1 @ F,0,0,1,0,0.1,0,1 @ F,0,0,1,0,0.1,0,1 @ F,0,0,1,0,0.1,0,1 @ F,0,0,1,0,0.1,0,1"
       unit="px"
       method="auto"
       mode="F"
       radius="0.1"
       chamfer_steps="1"
       flexible="false"
       use_knot_distance="true"
       apply_no_radius="true"
       apply_with_radius="true"
       only_selected="false"
       hide_knots="false" />
    <inkscape:path-effect
       effect="fillet_chamfer"
       id="path-effect975"
       is_visible="true"
       lpeversion="1"
       satellites_param="F,0,0,1,0,0.1,0,1 @ F,0,0,1,0,0.1,0,1 @ F,0,0,1,0,0.1,0,1 @ F,0,0,1,0,0.1,0,1 @ F,0,0,1,0,0.1,0,1 @ F,0,0,1,0,0.1,0,1"
       unit="px"
       method="auto"
       mode="F"
       radius="0.1"
       chamfer_steps="1"
       flexible="false"
       use_knot_distance="true"
       apply_no_radius="true"
       apply_with_radius="true"
       only_selected="false"
       hide_knots="false" />
    <inkscape:perspective
       sodipodi:type="inkscape:persp3d"
       inkscape:vp_x="-5.4065435 : 7.3003591 : 1"
       inkscape:vp_y="0 : 1000 : 0"
       inkscape:vp_z="11.931435 : 7.2381679 : 1"
       inkscape:persp3d-origin="2.11665 : 1.4111 : 1"
       id="perspective929" />
  </defs>
  <sodipodi:namedview
     pagecolor="#ffffff"
     bordercolor="#666666"
     borderopacity="1"
     objecttolerance="10"
     gridtolerance="10"
     guidetolerance="10"
     inkscape:pageopacity="0"
     inkscape:pageshadow="2"
     inkscape:window-width="1920"
     inkscape:window-height="1131"
     id="namedview16"
     showgrid="false"
     inkscape:zoom="34.604454"
     inkscape:cx="1.7559732"
     inkscape:cy="3.82048"
     inkscape:window-x="0"
     inkscape:window-y="32"
     inkscape:window-maximized="1"
     inkscape:current-layer="svg14"
     inkscape:document-rotation="0" />
  <metadata
     id="metadata2">
    <rdf:RDF>
      <cc:Work
         rdf:about="">
        <dc:format>image/svg+xml</dc:format>
        <dc:type
           rdf:resource="http://purl.org/dc/dcmitype/StillImage" />
        <dc:title></dc:title>
      </cc:Work>
    </rdf:RDF>
  </metadata>
  <path
     id="path1305"
     style="font-variation-settings:normal;opacity:1;vector-effect:none;fill:#2e3436;fill-opacity:1;stroke:none;stroke-width:0.264582px;stroke-linecap:butt;stroke-linejoin:miter;stroke-miterlimit:4;stroke-dasharray:none;stroke-dashoffset:0;stroke-opacity:1;stop-color:#000000;stop-opacity:1"
     d="m 2.1895086,0.01548161 c -1.62138616,0 -2.18337365,1.07843179 -2.1768367,2.08059049 0.001832,0.2805466 -0.02539415,0.7818303 0.20001562,0.8154693 C 0.50590962,3.7299641 1.3821256,4.2405836 2.1515056,4.2154615 2.9539282,4.1892594 3.6533073,3.872038 4.0876568,2.726554 4.2154402,2.6700611 4.2338753,2.3730799 4.2190006,2.0281739 4.1753512,1.0160786 3.4919894,0.01548161 2.1895086,0.01548161 Z M 2.0070684,0.36611746 C 2.1446796,0.36603911 2.2562553,0.48198523 2.25618,0.62498787 2.2562553,0.76799054 2.1446802,0.88393657 2.0070684,0.88385833 1.8694566,0.88393657 1.7578815,0.76799054 1.7579568,0.62498787 1.7578815,0.48198523 1.8694566,0.36603911 2.0070684,0.36611746 Z M 0.97208013,0.59192221 c 0.086472,1.4881e-4 0.15653567,0.0729573 0.15667897,0.16281675 2.248e-4,0.09013 -0.069946,0.16336058 -0.15667897,0.16350968 C 0.88534773,0.91809954 0.81517642,0.84486894 0.81540127,0.75473898 0.81554449,0.66487951 0.88560817,0.59207109 0.97208013,0.59192221 Z M 2.9392192,0.92215942 c 8.886e-4,-4.75e-6 0.00177,-6.29e-6 0.00266,0 0.1079168,-7.351e-5 0.195418,0.0908572 0.1953457,0.20300118 7.23e-5,0.1121458 -0.087431,0.2030766 -0.1953487,0.2030015 C 2.8339639,1.3282371 2.7464611,1.2373063 2.7465334,1.1251606 2.7464528,1.0140895 2.8323324,0.92272898 2.9392151,0.92215942 Z M 2.1468386,1.2875309 c 0.3297138,0 0.7018712,0.3841659 0.6993879,0.7267863 -0.00252,0.3499219 -0.3887063,0.7380369 -0.72539,0.7316362 C 1.7961741,2.7397804 1.4439564,2.3517353 1.4474506,2.0143172 1.4509987,1.6717068 1.8171248,1.2875309 2.1468386,1.2875309 Z M 3.5573862,1.429646 c 8.838e-4,-9.43e-5 0.00177,-6.2e-6 0.00266,0 0.1079171,-7.35e-5 0.1954182,0.090858 0.1953457,0.2030019 7.23e-5,0.1121456 -0.08743,0.2030764 -0.1953486,0.2030013 C 3.4521307,1.8357244 3.3646277,1.7447936 3.3647001,1.6326479 3.3646194,1.5215765 3.4510556,1.440979 3.557382,1.4296465 Z M 0.87707924,1.5858163 c 8.8852e-4,-6.2e-6 0.001777,-6.2e-6 0.002666,0 C 0.98766378,1.5857405 1.0751674,1.6766721 1.0750951,1.7888178 1.0747992,1.9006928 0.9874041,1.9912017 0.87974614,1.9911262 0.77208823,1.9912017 0.6846931,1.9006928 0.68439753,1.7888178 0.68431689,1.6777465 0.77020415,1.5872593 0.87707924,1.5858163 Z M 3.5009444,2.6011504 C 3.6275082,2.5682813 3.7053958,2.6726406 3.8629726,2.755653 3.63665,3.5870397 2.8712762,4.0536591 2.16484,4.0741224 1.4773864,4.0940361 0.4680688,3.4296097 0.44537236,2.8886778 0.55181707,2.6747443 0.76729374,2.5753572 0.95074519,2.6219354 1.1861781,2.6817116 1.1483456,3.1431422 1.3734449,3.2364822 1.5927684,3.3274274 1.8380741,3.0484317 2.0694992,3.097222 2.331717,3.1525039 2.473481,3.6139756 2.7362179,3.561423 3.1005961,3.3090387 3.1130524,2.7018872 3.5009444,2.6011504 Z"
     sodipodi:nodetypes="sccscssccccccccccsccccssscssssccccssccccccacscsssca" />
</svg>

<svg xmlns="http://www.w3.org/2000/svg" width="16" height="16" viewBox="0 0 4.233 4.233"><path style="font-variation-settings:normal;opacity:1;vector-effect:none;fill:#2e3436;fill-opacity:1;stroke:none;stroke-width:.264582px;stroke-linecap:butt;stroke-linejoin:miter;stroke-miterlimit:4;stroke-dasharray:none;stroke-dashoffset:0;stroke-opacity:1;stop-color:#000;stop-opacity:1" d="M2.19.015C.568.015.006 1.094.013 2.096c.002.28-.026.782.2.816.293.818 1.17 1.329 1.939 1.303.802-.026 1.501-.343 1.936-1.488.127-.057.146-.354.131-.699C4.175 1.016 3.492.015 2.189.015Zm-.183.351c.138 0 .25.116.25.259a.254.254 0 0 1-.25.259.254.254 0 0 1-.249-.259c0-.143.111-.259.25-.259ZM.972.592a.16.16 0 0 1 .157.163.16.16 0 0 1-.157.163.16.16 0 0 1-.157-.163c0-.09.07-.163.157-.163Zm1.967.33h.003a.2.2 0 0 1 .195.203.2.2 0 0 1-.195.203.2.2 0 0 1-.195-.203c0-.11.085-.202.192-.203Zm-.792.366c.33 0 .702.384.7.726-.003.35-.39.738-.726.732-.325-.006-.677-.394-.674-.732.004-.342.37-.726.7-.726Zm1.41.142h.003a.2.2 0 0 1 .195.203.2.2 0 0 1-.195.203.2.2 0 0 1-.195-.203c0-.111.086-.192.192-.203Zm-2.68.156H.88a.2.2 0 0 1 .195.203.2.2 0 0 1-.195.202.2.2 0 0 1-.196-.202.2.2 0 0 1 .193-.203ZM3.501 2.6c.127-.033.204.072.362.155-.226.831-.992 1.298-1.698 1.318-.688.02-1.697-.644-1.72-1.185.107-.214.322-.314.506-.267.235.06.197.521.422.614.22.091.465-.188.696-.139.263.056.404.517.667.464.365-.252.377-.86.765-.96Z"/></svg>
